images/badge-outline-dark.svg

<svg height="88" viewBox="0 0 88 88" width="88" xmlns="http://www.w3.org/2000/svg"><path d="m348 146c22.09139 0 40-17.90861 40-40s-17.90861-40-40-40-40 17.90861-40 40 17.90861 40 40 40zm0 4c-24.300529 0-44-19.699471-44-44s19.699471-44 44-44 44 19.699471 44 44-19.699471 44-44 44zm-9.04442-29.25c1.068245-1.654637 2.928414-2.75 5.04442-2.75 3.313708 0 6 2.686292 6 6s-2.686292 6-6 6c-2.612438 0-4.834916-1.669615-5.658589-4h-5.274744c-5.007382 0-9.066667-3.995859-9.066667-8.925s4.059285-8.925 9.066667-8.925h12.781138l-2.158434-3.15h-10.622704c-5.007382 0-9.066667-3.995859-9.066667-8.925 0-4.9291414 4.059285-8.925 9.066667-8.925 2.90346 0 5.333505 1.1035409 7.095396 3.3694442.114912.147785.556436.7782934 1.596615 2.2745196l4.766178 6.9560362h16.408477c2.061863 0 3.733334-1.6453535 3.733334-3.675s-1.671471-3.675-3.733334-3.675h-5.43969c-.971046 1.8698799-2.947144 3.15-5.226976 3.15-3.240071 0-5.866667-2.5855556-5.866667-5.775s2.626596-5.775 5.866667-5.775c2.279832 0 4.25593 1.2801201 5.226976 3.15h5.43969c5.007382 0 9.066667 3.9958586 9.066667 8.925 0 4.929141-4.059285 8.925-9.066667 8.925h-12.811251l2.158336 3.15h10.652915c5.007382 0 9.066667 3.995859 9.066667 8.925s-4.059285 8.925-9.066667 8.925c-2.771791 0-5.343219-1.235421-7.154464-3.448268l-1.319188-1.833639-5.014484-7.318093h-16.37853c-2.061863 0-3.733334 1.645354-3.733334 3.675s1.671471 3.675 3.733334 3.675zm19.890589-3.017563 1.181806 1.650768c.706843.860278 1.761116 1.366795 2.905358 1.366795 2.061863 0 3.733334-1.645354 3.733334-3.675s-1.671471-3.675-3.733334-3.675h-7.055689zm-21.49889-21.9880276c-.838865-1.2065645-1.399617-2.007334-1.420337-2.0339811-.719313-.9250816-1.567863-1.3104283-2.860275-1.3104283-2.061863 0-3.733334 1.6453535-3.733334 3.675s1.671471 3.675 3.733334 3.675h7.025312z" fill="#1e2347" transform="translate(-304 -62)"/></svg>

<?xml version="1.0" encoding="UTF-8"?>
<svg width="88px" height="88px" viewBox="0 0 88 88" version="1.1" xmlns="http://www.w3.org/2000/svg" xmlns:xlink="http://www.w3.org/1999/xlink">
    <!-- Generator: Sketch 52.6 (67491) - http://www.bohemiancoding.com/sketch -->
    <title>Fission Badge Outline</title>
    <desc>Created with Sketch.</desc>
    <g id="Page-1" stroke="none" stroke-width="1" fill="none" fill-rule="evenodd">
        <g id="Logos-Source" transform="translate(-368.000000, -1173.000000)" fill="#1E2347" fill-rule="nonzero">
            <g id="Badge" transform="translate(64.000000, 1111.000000)">
                <path d="M348,146 C370.09139,146 388,128.09139 388,106 C388,83.90861 370.09139,66 348,66 C325.90861,66 308,83.90861 308,106 C308,128.09139 325.90861,146 348,146 Z M348,150 C323.699471,150 304,130.300529 304,106 C304,81.699471 323.699471,62 348,62 C372.300529,62 392,81.699471 392,106 C392,130.300529 372.300529,150 348,150 Z M338.95558,120.75 C340.023825,119.095363 341.883994,118 344,118 C347.313708,118 350,120.686292 350,124 C350,127.313708 347.313708,130 344,130 C341.387562,130 339.165084,128.330385 338.341411,126 L333.066667,126 C328.059285,126 324,122.004141 324,117.075 C324,112.145859 328.059285,108.15 333.066667,108.15 L345.847805,108.15 L343.689371,105 L333.066667,105 C328.059285,105 324,101.004141 324,96.075 C324,91.1458586 328.059285,87.15 333.066667,87.15 C335.970127,87.15 338.400172,88.2535409 340.162063,90.5194442 C340.276975,90.6672292 340.718499,91.2977376 341.758678,92.7939638 L346.524856,99.75 L362.933333,99.75 C364.995196,99.75 366.666667,98.1046465 366.666667,96.075 C366.666667,94.0453535 364.995196,92.4 362.933333,92.4 L357.493643,92.4 C356.522597,94.2698799 354.546499,95.55 352.266667,95.55 C349.026596,95.55 346.4,92.9644444 346.4,89.775 C346.4,86.5855556 349.026596,84 352.266667,84 C354.546499,84 356.522597,85.2801201 357.493643,87.15 L362.933333,87.15 C367.940715,87.15 372,91.1458586 372,96.075 C372,101.004141 367.940715,105 362.933333,105 L350.122082,105 L352.280418,108.15 L362.933333,108.15 C367.940715,108.15 372,112.145859 372,117.075 C372,122.004141 367.940715,126 362.933333,126 C360.161542,126 357.590114,124.764579 355.778869,122.551732 L354.459681,120.718093 L349.445197,113.4 L333.066667,113.4 C331.004804,113.4 329.333333,115.045354 329.333333,117.075 C329.333333,119.104646 331.004804,120.75 333.066667,120.75 L338.95558,120.75 Z M358.846169,117.732437 L360.027975,119.383205 C360.734818,120.243483 361.789091,120.75 362.933333,120.75 C364.995196,120.75 366.666667,119.104646 366.666667,117.075 C366.666667,115.045354 364.995196,113.4 362.933333,113.4 L355.877644,113.4 L358.846169,117.732437 Z M337.347279,95.7444094 C336.508414,94.5378449 335.947662,93.7370754 335.926942,93.7104283 C335.207629,92.7853467 334.359079,92.4 333.066667,92.4 C331.004804,92.4 329.333333,94.0453535 329.333333,96.075 C329.333333,98.1046465 331.004804,99.75 333.066667,99.75 L340.091979,99.75 L337.347279,95.7444094 Z" id="Fission-Badge-Outline"></path>
            </g>
        </g>
    </g>
</svg>
